option_trc/i1isis/opt957_M2.ti3
CTI3   

DESCRIPTOR "Argyll Calibration Target chart information 3"
ORIGINATOR "Argyll target"
CREATED "Sat Jun 18 14:58:18 2022"
DEVICE_CLASS "OUTPUT"
TARGET_INSTRUMENT "GretagMacbeth Spectrolino"
COLOR_REP "iRGB_LAB"

NUMBER_OF_FIELDS 8
BEGIN_DATA_FORMAT
SAMPLE_ID SAMPLE_LOC RGB_R RGB_G RGB_B LAB_L LAB_A LAB_B 
END_DATA_FORMAT

NUMBER_OF_SETS 957
BEGIN_DATA
1 "1" 0.00000 0.00000 0.00000 1.490000 -1.780000 0.940000 
2 "2" 0.00000 0.00000 14.11765 5.610000 12.67000 -12.65000 
3 "3" 0.00000 0.00000 28.62745 9.260000 20.46000 -23.92000 
4 "4" 0.00000 0.00000 42.74510 11.27000 28.50000 -35.58000 
5 "5" 0.00000 0.00000 57.25490 13.72000 36.30000 -47.46000 
6 "6" 0.00000 0.00000 71.37255 16.59000 44.47000 -58.29000 
7 "7" 0.00000 0.00000 85.88235 20.13000 52.45000 -68.34000 
8 "8" 0.00000 0.00000 100.0000 28.62000 60.17000 -71.29000 
9 "9" 0.00000 14.11765 0.00000 10.42000 -13.51000 6.430000 
10 "10" 0.00000 14.11765 14.11765 6.800000 -8.280000 -11.94000 
11 "11" 0.00000 14.11765 28.62745 8.640000 1.870000 -25.22000 
12 "12" 0.00000 14.11765 42.74510 11.94000 10.99000 -38.61000 
13 "13" 0.00000 14.11765 57.25490 15.13000 17.76000 -51.04000 
14 "14" 0.00000 14.11765 71.37255 17.94000 25.83000 -62.15000 
15 "15" 0.00000 14.11765 85.88235 21.31000 35.00000 -73.72000 
16 "16" 0.00000 14.11765 100.0000 23.74000 45.28000 -81.57000 
17 "17" 0.00000 28.62745 0.00000 18.26000 -28.30000 12.61000 
18 "18" 0.00000 28.62745 14.11765 13.30000 -24.77000 -4.520000 
19 "19" 0.00000 28.62745 28.62745 12.65000 -15.44000 -21.05000 
20 "20" 0.00000 28.62745 42.74510 15.79000 -8.060000 -33.52000 
21 "21" 0.00000 28.62745 57.25490 18.76000 0.280000 -46.93000 
22 "22" 0.00000 28.62745 71.37255 21.24000 8.900000 -58.72000 
23 "23" 0.00000 28.62745 85.88235 24.51000 17.17000 -71.31000 
24 "24" 0.00000 28.62745 100.0000 26.56000 27.33000 -81.79000 
25 "25" 0.00000 42.74510 0.00000 23.85000 -41.22000 18.07000 
26 "26" 0.00000 42.74510 14.11765 19.34000 -38.94000 0.360000 
27 "27" 0.00000 42.74510 28.62745 18.74000 -31.39000 -15.42000 
28 "28" 0.00000 42.74510 42.74510 20.33000 -22.42000 -29.37000 
29 "29" 0.00000 42.74510 57.25490 23.78000 -15.52000 -41.58000 
30 "30" 0.00000 42.74510 71.37255 26.86000 -7.980000 -53.82000 
31 "31" 0.00000 42.74510 85.88235 29.10000 2.760000 -66.35000 
32 "32" 0.00000 42.74510 100.0000 31.48000 12.11000 -77.96000 
33 "33" 0.00000 57.25490 0.00000 29.31000 -54.13000 22.65000 
34 "34" 0.00000 57.25490 14.11765 25.33000 -52.84000 4.390000 
35 "35" 0.00000 57.25490 28.62745 24.65000 -46.52000 -9.580000 
36 "36" 0.00000 57.25490 42.74510 26.11000 -37.85000 -23.40000 
37 "37" 0.00000 57.25490 57.25490 28.67000 -30.31000 -37.57000 
38 "38" 0.00000 57.25490 71.37255 32.28000 -23.06000 -49.67000 
39 "39" 0.00000 57.25490 85.88235 34.14000 -11.72000 -62.69000 
40 "40" 0.00000 57.25490 100.0000 36.75000 -4.980000 -73.73000 
41 "41" 0.00000 71.37255 0.00000 35.58000 -66.89000 26.99000 
42 "42" 0.00000 71.37255 14.11765 31.55000 -66.57000 10.07000 
43 "43" 0.00000 71.37255 28.62745 30.77000 -60.11000 -5.320000 
44 "44" 0.00000 71.37255 42.74510 31.81000 -53.29000 -18.94000 
45 "45" 0.00000 71.37255 57.25490 34.28000 -45.33000 -32.26000 
46 "46" 0.00000 71.37255 71.37255 37.29000 -37.79000 -45.07000 
47 "47" 0.00000 71.37255 85.88235 40.39000 -29.09000 -58.40000 
48 "48" 0.00000 71.37255 100.0000 42.65000 -20.70000 -69.26000 
49 "49" 0.00000 85.88235 0.00000 41.62000 -77.12000 32.17000 
50 "50" 0.00000 85.88235 14.11765 38.23000 -80.78000 15.78000 
51 "51" 0.00000 85.88235 28.62745 36.08000 -74.68000 -0.520000 
52 "52" 0.00000 85.88235 42.74510 37.65000 -69.76000 -14.16000 
53 "53" 0.00000 85.88235 57.25490 39.72000 -59.78000 -27.63000 
54 "54" 0.00000 85.88235 71.37255 43.58000 -52.17000 -40.41000 
55 "55" 0.00000 85.88235 85.88235 48.15000 -44.22000 -52.50000 
56 "56" 0.00000 85.88235 100.0000 49.67000 -35.64000 -63.25000 
57 "57" 0.00000 100.0000 0.00000 50.08000 -82.26000 38.14000 
58 "58" 0.00000 100.0000 14.11765 42.93000 -90.90000 24.01000 
59 "59" 0.00000 100.0000 28.62745 40.93000 -88.33000 8.060000 
60 "60" 0.00000 100.0000 42.74510 41.03000 -79.81000 -7.610000 
61 "61" 0.00000 100.0000 57.25490 45.23000 -72.14000 -20.37000 
62 "62" 0.00000 100.0000 71.37255 49.83000 -62.29000 -32.53000 
63 "63" 0.00000 100.0000 85.88235 54.18000 -53.65000 -43.05000 
64 "64" 0.00000 100.0000 100.0000 58.83000 -44.52000 -53.53000 
65 "65" 14.11765 0.00000 0.00000 7.850000 16.35000 7.220000 
66 "66" 14.11765 0.00000 14.11765 10.44000 22.82000 -3.530000 
67 "67" 14.11765 0.00000 28.62745 14.43000 29.11000 -13.87000 
68 "68" 14.11765 0.00000 42.74510 17.19000 35.65000 -25.30000 
69 "69" 14.11765 0.00000 57.25490 19.06000 41.15000 -35.08000 
70 "70" 14.11765 0.00000 71.37255 21.05000 47.40000 -45.68000 
71 "71" 14.11765 0.00000 85.88235 24.67000 53.14000 -55.51000 
72 "72" 14.11765 0.00000 100.0000 30.19000 61.99000 -61.00000 
73 "73" 14.11765 14.11765 0.00000 14.73000 2.200000 14.92000 
74 "74" 14.11765 14.11765 14.11765 13.64000 6.260000 -1.940000 
75 "75" 14.11765 14.11765 28.62745 18.22000 12.01000 -15.55000 
76 "76" 14.11765 14.11765 42.74510 21.47000 18.98000 -28.93000 
77 "77" 14.11765 14.11765 57.25490 23.55000 24.62000 -41.05000 
78 "78" 14.11765 14.11765 71.37255 25.97000 32.61000 -54.63000 
79 "79" 14.11765 14.11765 85.88235 30.31000 40.79000 -66.74000 
80 "80" 14.11765 14.11765 100.0000 31.15000 48.44000 -72.12000 
81 "81" 14.11765 28.62745 0.00000 21.94000 -9.850000 21.42000 
82 "82" 14.11765 28.62745 14.11765 21.95000 -9.140000 4.450000 
83 "83" 14.11765 28.62745 28.62745 24.17000 -5.120000 -10.45000 
84 "84" 14.11765 28.62745 42.74510 26.65000 -0.01000000 -25.51000 
85 "85" 14.11765 28.62745 57.25490 29.47000 5.640000 -39.13000 
86 "86" 14.11765 28.62745 71.37255 31.61000 12.25000 -52.62000 
87 "87" 14.11765 28.62745 85.88235 35.30000 20.31000 -65.03000 
88 "88" 14.11765 28.62745 100.0000 34.58000 28.08000 -73.46000 
89 "89" 14.11765 42.74510 0.00000 27.78000 -24.83000 27.44000 
90 "90" 14.11765 42.74510 14.11765 28.45000 -22.40000 10.75000 
91 "91" 14.11765 42.74510 28.62745 29.97000 -20.02000 -6.380000 
92 "92" 14.11765 42.74510 42.74510 31.83000 -15.56000 -22.05000 
93 "93" 14.11765 42.74510 57.25490 33.50000 -10.29000 -35.58000 
94 "94" 14.11765 42.74510 71.37255 37.51000 -4.390000 -48.77000 
95 "95" 14.11765 42.74510 85.88235 40.10000 3.200000 -60.67000 
96 "96" 14.11765 42.74510 100.0000 39.43000 10.50000 -70.00000 
97 "97" 14.11765 57.25490 0.00000 33.71000 -38.09000 32.64000 
98 "98" 14.11765 57.25490 14.11765 34.60000 -40.21000 15.97000 
99 "99" 14.11765 57.25490 28.62745 36.89000 -37.81000 -1.910000 
100 "100" 14.11765 57.25490 42.74510 38.96000 -34.31000 -15.61000 
101 "101" 14.11765 57.25490 57.25490 41.10000 -28.90000 -28.87000 
102 "102" 14.11765 57.25490 71.37255 42.60000 -20.67000 -43.26000 
103 "103" 14.11765 57.25490 85.88235 45.50000 -13.82000 -55.28000 
104 "104" 14.11765 57.25490 100.0000 46.32000 -5.730000 -64.01000 
105 "105" 14.11765 71.37255 0.00000 40.11000 -50.83000 37.83000 
106 "106" 14.11765 71.37255 14.11765 42.53000 -54.36000 21.60000 
107 "107" 14.11765 71.37255 28.62745 43.60000 -53.70000 4.500000 
108 "108" 14.11765 71.37255 42.74510 45.44000 -49.06000 -10.65000 
109 "109" 14.11765 71.37255 57.25490 46.56000 -43.29000 -24.36000 
110 "110" 14.11765 71.37255 71.37255 48.39000 -37.78000 -36.93000 
111 "111" 14.11765 71.37255 85.88235 50.98000 -30.38000 -48.78000 
112 "112" 14.11765 71.37255 100.0000 51.46000 -22.53000 -60.00000 
113 "113" 14.11765 85.88235 0.00000 47.29000 -60.67000 44.17000 
114 "114" 14.11765 85.88235 14.11765 49.52000 -68.19000 28.66000 
115 "115" 14.11765 85.88235 28.62745 49.79000 -67.90000 11.04000 
116 "116" 14.11765 85.88235 42.74510 50.61000 -63.86000 -3.610000 
117 "117" 14.11765 85.88235 57.25490 52.44000 -56.27000 -17.72000 
118 "118" 14.11765 85.88235 71.37255 54.50000 -49.90000 -30.42000 
119 "119" 14.11765 85.88235 85.88235 56.70000 -43.92000 -42.57000 
120 "120" 14.11765 85.88235 100.0000 59.82000 -38.48000 -51.11000 
121 "121" 14.11765 100.0000 0.00000 54.29000 -71.38000 50.47000 
122 "122" 14.11765 100.0000 14.11765 52.24000 -78.81000 36.01000 
123 "123" 14.11765 100.0000 28.62745 53.07000 -81.06000 18.92000 
124 "124" 14.11765 100.0000 42.74510 52.97000 -77.10000 3.140000 
125 "125" 14.11765 100.0000 57.25490 55.75000 -70.07000 -10.94000 
126 "126" 14.11765 100.0000 71.37255 59.67000 -60.43000 -22.05000 
127 "127" 14.11765 100.0000 85.88235 62.82000 -52.58000 -33.21000 
128 "128" 14.11765 100.0000 100.0000 65.44000 -44.42000 -44.23000 
129 "129" 28.62745 0.00000 0.00000 14.48000 26.67000 16.68000 
130 "130" 28.62745 0.00000 14.11765 17.18000 32.38000 4.610000 
131 "131" 28.62745 0.00000 28.62745 20.72000 37.91000 -4.230000 
132 "132" 28.62745 0.00000 42.74510 22.51000 42.25000 -14.03000 
133 "133" 28.62745 0.00000 57.25490 24.60000 46.00000 -25.14000 
134 "134" 28.62745 0.00000 71.37255 26.42000 50.80000 -35.33000 
135 "135" 28.62745 0.00000 85.88235 29.68000 57.14000 -45.98000 
136 "136" 28.62745 0.00000 100.0000 33.08000 63.29000 -51.65000 
137 "137" 28.62745 14.11765 0.00000 23.31000 13.83000 25.99000 
138 "138" 28.62745 14.11765 14.11765 22.88000 16.15000 7.600000 
139 "139" 28.62745 14.11765 28.62745 25.46000 19.93000 -4.860000 
140 "140" 28.62745 14.11765 42.74510 27.35000 25.92000 -17.53000 
141 "141" 28.62745 14.11765 57.25490 31.37000 31.05000 -29.35000 
142 "142" 28.62745 14.11765 71.37255 33.29000 37.29000 -41.32000 
143 "143" 28.62745 14.11765 85.88235 36.07000 43.23000 -53.46000 
144 "144" 28.62745 14.11765 100.0000 35.89000 49.09000 -61.65000 
145 "145" 28.62745 28.62745 0.00000 27.97000 0.940000 30.05000 
146 "146" 28.62745 28.62745 14.11765 29.76000 0.280000 13.94000 
147 "147" 28.62745 28.62745 28.62745 30.40000 3.890000 -1.370000 
148 "148" 28.62745 28.62745 42.74510 34.31000 8.850000 -13.92000 
149 "149" 28.62745 28.62745 57.25490 37.39000 13.50000 -26.90000 
150 "150" 28.62745 28.62745 71.37255 40.81000 18.87000 -39.96000 
151 "151" 28.62745 28.62745 85.88235 42.92000 24.65000 -51.77000 
152 "152" 28.62745 28.62745 100.0000 41.99000 32.06000 -61.94000 
153 "153" 28.62745 42.74510 0.00000 34.01000 -10.53000 37.97000 
154 "154" 28.62745 42.74510 14.11765 35.74000 -11.20000 20.72000 
155 "155" 28.62745 42.74510 28.62745 38.35000 -9.790000 4.570000 
156 "156" 28.62745 42.74510 42.74510 41.26000 -6.760000 -10.12000 
157 "157" 28.62745 42.74510 57.25490 42.99000 -2.390000 -22.42000 
158 "158" 28.62745 42.74510 71.37255 47.04000 3.130000 -34.68000 
159 "159" 28.62745 42.74510 85.88235 48.42000 9.890000 -46.24000 
160 "160" 28.62745 42.74510 100.0000 47.10000 16.99000 -59.24000 
161 "161" 28.62745 57.25490 0.00000 39.83000 -25.15000 42.86000 
162 "162" 28.62745 57.25490 14.11765 42.70000 -26.94000 25.94000 
163 "163" 28.62745 57.25490 28.62745 45.40000 -25.19000 10.70000 
164 "164" 28.62745 57.25490 42.74510 47.36000 -22.43000 -3.650000 
165 "165" 28.62745 57.25490 57.25490 49.24000 -18.06000 -15.81000 
166 "166" 28.62745 57.25490 71.37255 51.03000 -12.15000 -29.26000 
167 "167" 28.62745 57.25490 85.88235 52.69000 -4.940000 -42.85000 
168 "168" 28.62745 57.25490 100.0000 53.01000 0.820000 -54.17000 
169 "169" 28.62745 71.37255 0.00000 46.81000 -36.42000 49.28000 
170 "170" 28.62745 71.37255 14.11765 48.92000 -40.72000 33.22000 
171 "171" 28.62745 71.37255 28.62745 52.20000 -40.32000 17.01000 
172 "172" 28.62745 71.37255 42.74510 52.44000 -37.42000 2.260000 
173 "173" 28.62745 71.37255 57.25490 54.68000 -32.88000 -11.32000 
174 "174" 28.62745 71.37255 71.37255 55.81000 -26.87000 -23.47000 
175 "175" 28.62745 71.37255 85.88235 58.43000 -19.84000 -35.74000 
176 "176" 28.62745 71.37255 100.0000 59.04000 -13.34000 -47.78000 
177 "177" 28.62745 85.88235 0.00000 53.07000 -48.68000 54.26000 
178 "178" 28.62745 85.88235 14.11765 55.32000 -54.76000 39.27000 
179 "179" 28.62745 85.88235 28.62745 56.67000 -55.16000 21.40000 
180 "180" 28.62745 85.88235 42.74510 58.15000 -51.32000 8.480000 
181 "181" 28.62745 85.88235 57.25490 60.18000 -46.33000 -5.150000 
182 "182" 28.62745 85.88235 71.37255 61.36000 -39.86000 -18.40000 
183 "183" 28.62745 85.88235 85.88235 63.64000 -34.59000 -30.96000 
184 "184" 28.62745 85.88235 100.0000 65.75000 -28.51000 -42.20000 
185 "185" 28.62745 100.0000 0.00000 60.03000 -58.78000 61.01000 
186 "186" 28.62745 100.0000 14.11765 58.98000 -68.96000 46.69000 
187 "187" 28.62745 100.0000 28.62745 60.58000 -69.54000 28.56000 
188 "188" 28.62745 100.0000 42.74510 61.67000 -67.27000 14.64000 
189 "189" 28.62745 100.0000 57.25490 63.58000 -61.53000 0.470000 
190 "190" 28.62745 100.0000 71.37255 67.15000 -53.90000 -11.89000 
191 "191" 28.62745 100.0000 85.88235 68.75000 -46.45000 -25.23000 
192 "192" 28.62745 100.0000 100.0000 71.49000 -39.31000 -36.68000 
193 "193" 42.74510 0.00000 0.00000 22.60000 37.58000 26.19000 
194 "194" 42.74510 0.00000 14.11765 25.03000 42.07000 14.39000 
195 "195" 42.74510 0.00000 28.62745 26.67000 45.97000 3.970000 
196 "196" 42.74510 0.00000 42.74510 28.40000 49.28000 -5.340000 
197 "197" 42.74510 0.00000 57.25490 29.95000 52.71000 -14.82000 
198 "198" 42.74510 0.00000 71.37255 31.52000 56.06000 -24.79000 
199 "199" 42.74510 0.00000 85.88235 34.17000 60.18000 -36.31000 
200 "200" 42.74510 0.00000 100.0000 37.31000 65.54000 -42.34000 
201 "201" 42.74510 14.11765 0.00000 29.84000 24.99000 35.35000 
202 "202" 42.74510 14.11765 14.11765 30.86000 25.42000 19.35000 
203 "203" 42.74510 14.11765 28.62745 32.21000 29.88000 5.230000 
204 "204" 42.74510 14.11765 42.74510 33.99000 32.70000 -6.440000 
205 "205" 42.74510 14.11765 57.25490 36.82000 37.71000 -19.28000 
206 "206" 42.74510 14.11765 71.37255 39.71000 42.71000 -30.70000 
207 "207" 42.74510 14.11765 85.88235 41.15000 47.17000 -41.87000 
208 "208" 42.74510 14.11765 100.0000 40.35000 53.03000 -52.15000 
209 "209" 42.74510 28.62745 0.00000 35.73000 11.03000 41.57000 
210 "210" 42.74510 28.62745 14.11765 38.18000 10.02000 24.45000 
211 "211" 42.74510 28.62745 28.62745 38.84000 12.09000 9.050000 
212 "212" 42.74510 28.62745 42.74510 41.40000 16.00000 -3.980000 
213 "213" 42.74510 28.62745 57.25490 43.97000 20.99000 -16.74000 
214 "214" 42.74510 28.62745 71.37255 45.98000 24.90000 -28.80000 
215 "215" 42.74510 28.62745 85.88235 48.71000 28.64000 -41.40000 
216 "216" 42.74510 28.62745 100.0000 46.71000 35.07000 -53.19000 
217 "217" 42.74510 42.74510 0.00000 42.15000 -0.500000 48.71000 
218 "218" 42.74510 42.74510 14.11765 43.89000 -2.680000 31.23000 
219 "219" 42.74510 42.74510 28.62745 45.15000 -1.400000 15.34000 
220 "220" 42.74510 42.74510 42.74510 45.28000 2.050000 0.490000 
221 "221" 42.74510 42.74510 57.25490 48.85000 5.380000 -12.51000 
222 "222" 42.74510 42.74510 71.37255 51.86000 10.31000 -24.78000 
223 "223" 42.74510 42.74510 85.88235 53.86000 14.44000 -37.62000 
224 "224" 42.74510 42.74510 100.0000 53.24000 20.74000 -49.46000 
225 "225" 42.74510 57.25490 0.00000 46.67000 -12.97000 53.01000 
226 "226" 42.74510 57.25490 14.11765 49.47000 -17.11000 37.08000 
227 "227" 42.74510 57.25490 28.62745 51.21000 -15.80000 20.97000 
228 "228" 42.74510 57.25490 42.74510 52.89000 -12.82000 6.220000 
229 "229" 42.74510 57.25490 57.25490 54.46000 -9.770000 -6.180000 
230 "230" 42.74510 57.25490 71.37255 56.53000 -4.390000 -19.76000 
231 "231" 42.74510 57.25490 85.88235 58.71000 0.340000 -32.97000 
232 "232" 42.74510 57.25490 100.0000 58.50000 6.710000 -45.26000 
233 "233" 42.74510 71.37255 0.00000 53.67000 -25.67000 59.06000 
234 "234" 42.74510 71.37255 14.11765 56.64000 -31.01000 43.83000 
235 "235" 42.74510 71.37255 28.62745 57.75000 -30.29000 26.98000 
236 "236" 42.74510 71.37255 42.74510 58.43000 -27.02000 12.69000 
237 "237" 42.74510 71.37255 57.25490 59.85000 -22.95000 -1.140000 
238 "238" 42.74510 71.37255 71.37255 61.62000 -18.81000 -13.48000 
239 "239" 42.74510 71.37255 85.88235 64.23000 -13.26000 -26.43000 
240 "240" 42.74510 71.37255 100.0000 64.01000 -7.390000 -40.81000 
241 "241" 42.74510 85.88235 0.00000 59.42000 -38.27000 63.90000 
242 "242" 42.74510 85.88235 14.11765 60.85000 -43.92000 49.40000 
243 "243" 42.74510 85.88235 28.62745 62.83000 -44.09000 31.76000 
244 "244" 42.74510 85.88235 42.74510 64.18000 -41.12000 18.20000 
245 "245" 42.74510 85.88235 57.25490 66.29000 -37.12000 4.490000 
246 "246" 42.74510 85.88235 71.37255 67.49000 -31.48000 -9.850000 
247 "247" 42.74510 85.88235 85.88235 69.43000 -26.73000 -21.58000 
248 "248" 42.74510 85.88235 100.0000 69.90000 -21.07000 -35.28000 
249 "249" 42.74510 100.0000 0.00000 66.07000 -48.21000 70.57000 
250 "250" 42.74510 100.0000 14.11765 64.96000 -58.15000 55.76000 
251 "251" 42.74510 100.0000 28.62745 66.22000 -59.49000 38.17000 
252 "252" 42.74510 100.0000 42.74510 67.83000 -56.49000 22.91000 
253 "253" 42.74510 100.0000 57.25490 69.74000 -50.94000 8.900000 
254 "254" 42.74510 100.0000 71.37255 72.62000 -44.51000 -4.090000 
255 "255" 42.74510 100.0000 85.88235 73.68000 -38.52000 -17.86000 
256 "256" 42.74510 100.0000 100.0000 75.70000 -31.18000 -29.81000 
257 "257" 57.25490 0.00000 0.00000 31.88000 47.38000 33.89000 
258 "258" 57.25490 0.00000 14.11765 32.86000 50.76000 22.31000 
259 "259" 57.25490 0.00000 28.62745 34.01000 54.37000 12.72000 
260 "260" 57.25490 0.00000 42.74510 34.50000 56.47000 3.650000 
261 "261" 57.25490 0.00000 57.25490 35.47000 59.81000 -5.780000 
262 "262" 57.25490 0.00000 71.37255 36.64000 61.84000 -14.10000 
263 "263" 57.25490 0.00000 85.88235 38.15000 64.73000 -25.26000 
264 "264" 57.25490 0.00000 100.0000 40.76000 68.79000 -33.50000 
265 "265" 57.25490 14.11765 0.00000 37.53000 34.38000 46.76000 
266 "266" 57.25490 14.11765 14.11765 37.98000 35.17000 31.23000 
267 "267" 57.25490 14.11765 28.62745 39.72000 37.97000 15.88000 
268 "268" 57.25490 14.11765 42.74510 40.64000 41.01000 3.880000 
269 "269" 57.25490 14.11765 57.25490 42.06000 44.81000 -8.230000 
270 "270" 57.25490 14.11765 71.37255 43.76000 48.58000 -19.55000 
271 "271" 57.25490 14.11765 85.88235 45.78000 51.20000 -31.78000 
272 "272" 57.25490 14.11765 100.0000 44.70000 57.78000 -42.44000 
273 "273" 57.25490 28.62745 0.00000 43.88000 21.13000 53.32000 
274 "274" 57.25490 28.62745 14.11765 44.66000 19.49000 35.76000 
275 "275" 57.25490 28.62745 28.62745 46.22000 20.80000 20.30000 
276 "276" 57.25490 28.62745 42.74510 46.75000 23.57000 7.220000 
277 "277" 57.25490 28.62745 57.25490 49.21000 27.23000 -5.940000 
278 "278" 57.25490 28.62745 71.37255 50.49000 31.44000 -18.44000 
279 "279" 57.25490 28.62745 85.88235 52.25000 35.28000 -31.27000 
280 "280" 57.25490 28.62745 100.0000 51.17000 41.97000 -44.11000 
281 "281" 57.25490 42.74510 0.00000 48.47000 8.590000 58.38000 
282 "282" 57.25490 42.74510 14.11765 50.14000 6.650000 42.17000 
283 "283" 57.25490 42.74510 28.62745 51.51000 6.870000 25.94000 
284 "284" 57.25490 42.74510 42.74510 52.17000 9.210000 11.32000 
285 "285" 57.25490 42.74510 57.25490 54.61000 13.13000 -2.070000 
286 "286" 57.25490 42.74510 71.37255 56.42000 16.88000 -14.94000 
287 "287" 57.25490 42.74510 85.88235 58.93000 20.56000 -28.34000 
288 "288" 57.25490 42.74510 100.0000 58.09000 26.31000 -40.94000 
289 "289" 57.25490 57.25490 0.00000 54.05000 -2.300000 64.24000 
290 "290" 57.25490 57.25490 14.11765 56.28000 -6.900000 48.09000 
291 "291" 57.25490 57.25490 28.62745 57.33000 -5.660000 31.49000 
292 "292" 57.25490 57.25490 42.74510 58.14000 -3.240000 17.33000 
293 "293" 57.25490 57.25490 57.25490 58.53000 0.140000 2.760000 
294 "294" 57.25490 57.25490 71.37255 61.72000 4.160000 -10.73000 
295 "295" 57.25490 57.25490 85.88235 64.25000 7.970000 -24.92000 
296 "296" 57.25490 57.25490 100.0000 63.52000 12.91000 -37.02000 
297 "297" 57.25490 71.37255 0.00000 59.10000 -13.55000 68.70000 
298 "298" 57.25490 71.37255 14.11765 62.15000 -19.56000 54.53000 
299 "299" 57.25490 71.37255 28.62745 62.42000 -19.17000 36.79000 
300 "300" 57.25490 71.37255 42.74510 63.79000 -16.78000 22.40000 
301 "301" 57.25490 71.37255 57.25490 65.00000 -13.16000 7.510000 
302 "302" 57.25490 71.37255 71.37255 66.36000 -9.320000 -5.650000 
303 "303" 57.25490 71.37255 85.88235 68.72000 -4.520000 -20.65000 
304 "304" 57.25490 71.37255 100.0000 68.58000 -0.620000 -33.32000 
305 "305" 57.25490 85.88235 0.00000 66.66000 -26.44000 74.95000 
306 "306" 57.25490 85.88235 14.11765 66.61000 -32.65000 59.02000 
307 "307" 57.25490 85.88235 28.62745 68.29000 -32.75000 41.26000 
308 "308" 57.25490 85.88235 42.74510 69.40000 -30.24000 26.94000 
309 "309" 57.25490 85.88235 57.25490 71.53000 -26.64000 13.10000 
310 "310" 57.25490 85.88235 71.37255 72.19000 -22.43000 -1.650000 
311 "311" 57.25490 85.88235 85.88235 73.74000 -18.38000 -14.99000 
312 "312" 57.25490 85.88235 100.0000 73.42000 -14.65000 -29.67000 
313 "313" 57.25490 100.0000 0.00000 71.85000 -37.11000 80.18000 
314 "314" 57.25490 100.0000 14.11765 72.18000 -45.11000 65.71000 
315 "315" 57.25490 100.0000 28.62745 73.24000 -46.43000 47.83000 
316 "316" 57.25490 100.0000 42.74510 73.61000 -44.96000 32.17000 
317 "317" 57.25490 100.0000 57.25490 75.59000 -40.63000 16.49000 
318 "318" 57.25490 100.0000 71.37255 77.43000 -34.99000 4.200000 
319 "319" 57.25490 100.0000 85.88235 78.57000 -29.76000 -9.700000 
320 "320" 57.25490 100.0000 100.0000 80.49000 -23.85000 -23.65000 
321 "321" 71.37255 0.00000 0.00000 39.33000 57.62000 44.90000 
322 "322" 71.37255 0.00000 14.11765 40.01000 59.99000 32.04000 
323 "323" 71.37255 0.00000 28.62745 40.22000 62.76000 22.72000 
324 "324" 71.37255 0.00000 42.74510 40.55000 64.37000 13.24000 
325 "325" 71.37255 0.00000 57.25490 41.12000 65.90000 3.000000 
326 "326" 71.37255 0.00000 71.37255 41.08000 68.00000 -6.550000 
327 "327" 71.37255 0.00000 85.88235 41.88000 69.28000 -15.35000 
328 "328" 71.37255 0.00000 100.0000 44.77000 72.69000 -24.42000 
329 "329" 71.37255 14.11765 0.00000 44.56000 44.62000 57.78000 
330 "330" 71.37255 14.11765 14.11765 45.53000 45.29000 41.94000 
331 "331" 71.37255 14.11765 28.62745 46.06000 46.24000 27.52000 
332 "332" 71.37255 14.11765 42.74510 47.19000 48.89000 14.38000 
333 "333" 71.37255 14.11765 57.25490 47.86000 50.56000 1.530000 
334 "334" 71.37255 14.11765 71.37255 48.06000 54.90000 -10.57000 
335 "335" 71.37255 14.11765 85.88235 49.84000 58.72000 -22.08000 
336 "336" 71.37255 14.11765 100.0000 50.03000 62.22000 -34.13000 
337 "337" 71.37255 28.62745 0.00000 50.90000 30.99000 64.56000 
338 "338" 71.37255 28.62745 14.11765 51.42000 28.92000 47.39000 
339 "339" 71.37255 28.62745 28.62745 51.24000 30.27000 31.88000 
340 "340" 71.37255 28.62745 42.74510 53.15000 31.93000 17.60000 
341 "341" 71.37255 28.62745 57.25490 54.13000 33.90000 3.760000 
342 "342" 71.37255 28.62745 71.37255 55.29000 37.93000 -8.750000 
343 "343" 71.37255 28.62745 85.88235 57.25000 42.47000 -22.24000 
344 "344" 71.37255 28.62745 100.0000 56.28000 46.60000 -35.92000 
345 "345" 71.37255 42.74510 0.00000 56.06000 18.49000 69.91000 
346 "346" 71.37255 42.74510 14.11765 57.29000 15.69000 51.99000 
347 "347" 71.37255 42.74510 28.62745 57.61000 16.10000 36.41000 
348 "348" 71.37255 42.74510 42.74510 58.18000 18.01000 21.94000 
349 "349" 71.37255 42.74510 57.25490 59.60000 20.04000 7.640000 
350 "350" 71.37255 42.74510 71.37255 61.41000 23.94000 -5.410000 
351 "351" 71.37255 42.74510 85.88235 63.71000 27.61000 -19.91000 
352 "352" 71.37255 42.74510 100.0000 62.61000 33.33000 -33.39000 
353 "353" 71.37255 57.25490 0.00000 60.60000 6.450000 74.27000 
354 "354" 71.37255 57.25490 14.11765 62.35000 2.710000 58.33000 
355 "355" 71.37255 57.25490 28.62745 63.06000 2.720000 41.32000 
356 "356" 71.37255 57.25490 42.74510 64.47000 4.510000 26.70000 
357 "357" 71.37255 57.25490 57.25490 65.04000 6.690000 11.82000 
358 "358" 71.37255 57.25490 71.37255 67.16000 10.30000 -1.760000 
359 "359" 71.37255 57.25490 85.88235 69.76000 15.22000 -16.22000 
360 "360" 71.37255 57.25490 100.0000 67.94000 19.74000 -29.55000 
361 "361" 71.37255 71.37255 0.00000 66.54000 -4.020000 80.13000 
362 "362" 71.37255 71.37255 14.11765 67.32000 -9.060000 63.54000 
363 "363" 71.37255 71.37255 28.62745 68.70000 -9.020000 46.61000 
