option_trc/i1isis/x6_M2.ti3
CTI3   

DESCRIPTOR "Argyll Calibration Target chart information 3"
ORIGINATOR "Argyll target"
CREATED "Sat Jun 18 14:57:15 2022"
DEVICE_CLASS "OUTPUT"
TARGET_INSTRUMENT "GretagMacbeth Spectrolino"
COLOR_REP "iRGB_LAB"

NUMBER_OF_FIELDS 8
BEGIN_DATA_FORMAT
SAMPLE_ID SAMPLE_LOC RGB_R RGB_G RGB_B LAB_L LAB_A LAB_B 
END_DATA_FORMAT

NUMBER_OF_SETS 371
BEGIN_DATA
1 "1" 0.00000 0.00000 0.00000 1.720000 -1.370000 0.840000 
2 "2" 0.00000 0.00000 20.00000 7.530000 16.26000 -17.14000 
3 "3" 0.00000 0.00000 40.00000 10.76000 27.11000 -33.26000 
4 "4" 0.00000 0.00000 60.00000 14.35000 37.74000 -49.88000 
5 "5" 0.00000 0.00000 80.00000 18.69000 49.60000 -64.82000 
6 "6" 0.00000 0.00000 100.0000 28.83000 59.90000 -71.39000 
7 "7" 0.00000 20.00000 0.00000 13.84000 -19.74000 8.560000 
8 "8" 0.00000 20.00000 20.00000 9.160000 -11.85000 -15.34000 
9 "9" 0.00000 20.00000 40.00000 12.66000 1.570000 -34.60000 
10 "10" 0.00000 20.00000 60.00000 17.06000 11.92000 -51.36000 
11 "11" 0.00000 20.00000 80.00000 21.09000 23.67000 -68.15000 
12 "12" 0.00000 20.00000 100.0000 24.31000 38.36000 -82.96000 
13 "13" 0.00000 40.00000 0.00000 22.89000 -38.77000 16.86000 
14 "14" 0.00000 40.00000 20.00000 18.08000 -33.65000 -6.630000 
15 "15" 0.00000 40.00000 40.00000 19.02000 -20.87000 -27.84000 
16 "16" 0.00000 40.00000 60.00000 23.20000 -10.56000 -45.57000 
17 "17" 0.00000 40.00000 80.00000 27.17000 1.260000 -61.83000 
18 "18" 0.00000 40.00000 100.0000 30.22000 15.27000 -79.21000 
19 "19" 0.00000 60.00000 0.00000 30.68000 -56.32000 23.50000 
20 "20" 0.00000 60.00000 20.00000 26.21000 -53.51000 -0.210000 
21 "21" 0.00000 60.00000 40.00000 26.40000 -43.28000 -20.10000 
22 "22" 0.00000 60.00000 60.00000 30.17000 -31.40000 -39.29000 
23 "23" 0.00000 60.00000 80.00000 34.52000 -19.01000 -57.17000 
24 "24" 0.00000 60.00000 100.0000 38.38000 -8.190000 -72.55000 
25 "25" 0.00000 80.00000 0.00000 38.73000 -73.64000 30.24000 
26 "26" 0.00000 80.00000 20.00000 34.34000 -72.93000 6.800000 
27 "27" 0.00000 80.00000 40.00000 35.46000 -64.15000 -13.09000 
28 "28" 0.00000 80.00000 60.00000 37.75000 -52.22000 -31.80000 
29 "29" 0.00000 80.00000 80.00000 43.04000 -41.39000 -50.27000 
30 "30" 0.00000 80.00000 100.0000 46.35000 -29.47000 -65.72000 
31 "31" 0.00000 100.0000 0.00000 50.03000 -82.47000 38.01000 
32 "32" 0.00000 100.0000 20.00000 40.51000 -90.08000 18.10000 
33 "33" 0.00000 100.0000 40.00000 40.39000 -81.12000 -4.770000 
34 "34" 0.00000 100.0000 60.00000 46.58000 -69.96000 -22.86000 
35 "35" 0.00000 100.0000 80.00000 52.64000 -56.90000 -38.72000 
36 "36" 0.00000 100.0000 100.0000 58.79000 -44.14000 -53.53000 
37 "37" 20.00000 0.00000 0.00000 9.750000 20.85000 11.15000 
38 "38" 20.00000 0.00000 20.00000 14.39000 29.30000 -4.090000 
39 "39" 20.00000 0.00000 40.00000 18.82000 36.83000 -18.83000 
40 "40" 20.00000 0.00000 60.00000 21.87000 43.92000 -32.82000 
41 "41" 20.00000 0.00000 80.00000 25.03000 51.81000 -47.93000 
42 "42" 20.00000 0.00000 100.0000 31.33000 62.37000 -57.03000 
43 "43" 20.00000 20.00000 0.00000 20.10000 1.820000 21.15000 
44 "44" 20.00000 20.00000 20.00000 21.10000 4.480000 -1.910000 
45 "45" 20.00000 20.00000 40.00000 26.35000 13.43000 -19.84000 
46 "46" 20.00000 20.00000 60.00000 29.78000 20.81000 -38.88000 
47 "47" 20.00000 20.00000 80.00000 33.53000 30.97000 -55.69000 
48 "48" 20.00000 20.00000 100.0000 35.51000 41.18000 -68.62000 
49 "49" 20.00000 40.00000 0.00000 28.92000 -16.01000 30.61000 
50 "50" 20.00000 40.00000 20.00000 30.95000 -13.38000 6.570000 
51 "51" 20.00000 40.00000 40.00000 34.60000 -9.240000 -14.89000 
52 "52" 20.00000 40.00000 60.00000 37.77000 -2.860000 -32.81000 
53 "53" 20.00000 40.00000 80.00000 42.44000 5.570000 -50.87000 
54 "54" 20.00000 40.00000 100.0000 41.61000 16.08000 -66.22000 
55 "55" 20.00000 60.00000 0.00000 37.40000 -34.78000 37.66000 
56 "56" 20.00000 60.00000 20.00000 40.00000 -37.03000 13.90000 
57 "57" 20.00000 60.00000 40.00000 43.31000 -33.11000 -6.810000 
58 "58" 20.00000 60.00000 60.00000 45.57000 -26.03000 -25.79000 
59 "59" 20.00000 60.00000 80.00000 49.40000 -16.33000 -44.52000 
60 "60" 20.00000 60.00000 100.0000 50.50000 -5.930000 -58.72000 
61 "61" 20.00000 80.00000 0.00000 47.21000 -50.85000 45.93000 
62 "62" 20.00000 80.00000 20.00000 49.79000 -58.49000 23.21000 
63 "63" 20.00000 80.00000 40.00000 52.24000 -54.36000 0.570000 
64 "64" 20.00000 80.00000 60.00000 54.15000 -45.51000 -18.47000 
65 "65" 20.00000 80.00000 80.00000 56.28000 -39.78000 -35.03000 
66 "66" 20.00000 80.00000 100.0000 58.72000 -29.65000 -50.58000 
67 "67" 20.00000 100.0000 0.00000 56.10000 -66.16000 54.51000 
68 "68" 20.00000 100.0000 20.00000 55.60000 -74.95000 33.11000 
69 "69" 20.00000 100.0000 40.00000 56.71000 -74.04000 10.82000 
70 "70" 20.00000 100.0000 60.00000 59.75000 -65.15000 -7.820000 
71 "71" 20.00000 100.0000 80.00000 64.11000 -53.60000 -24.76000 
72 "72" 20.00000 100.0000 100.0000 68.23000 -42.73000 -41.28000 
73 "73" 40.00000 0.00000 0.00000 21.12000 35.75000 24.36000 
74 "74" 40.00000 0.00000 20.00000 24.28000 42.21000 8.290000 
75 "75" 40.00000 0.00000 40.00000 26.73000 47.15000 -5.480000 
76 "76" 40.00000 0.00000 60.00000 29.31000 51.82000 -18.83000 
77 "77" 40.00000 0.00000 80.00000 31.94000 57.31000 -33.68000 
78 "78" 40.00000 0.00000 100.0000 36.48000 65.44000 -43.68000 
79 "79" 40.00000 20.00000 0.00000 30.51000 17.52000 35.71000 
80 "80" 40.00000 20.00000 20.00000 32.53000 18.08000 13.27000 
81 "81" 40.00000 20.00000 40.00000 34.97000 23.80000 -5.880000 
82 "82" 40.00000 20.00000 60.00000 39.08000 30.69000 -23.26000 
83 "83" 40.00000 20.00000 80.00000 42.26000 37.61000 -40.11000 
84 "84" 40.00000 20.00000 100.0000 41.34000 45.19000 -55.47000 
85 "85" 40.00000 40.00000 0.00000 39.76000 0.140000 46.25000 
86 "86" 40.00000 40.00000 20.00000 43.20000 -2.560000 22.20000 
87 "87" 40.00000 40.00000 40.00000 42.20000 2.730000 0.390000 
88 "88" 40.00000 40.00000 60.00000 46.99000 8.180000 -17.92000 
89 "89" 40.00000 40.00000 80.00000 51.47000 14.00000 -34.45000 
90 "90" 40.00000 40.00000 100.0000 50.78000 22.81000 -51.60000 
91 "91" 40.00000 60.00000 0.00000 46.12000 -18.04000 51.86000 
92 "92" 40.00000 60.00000 20.00000 50.69000 -21.90000 30.26000 
93 "93" 40.00000 60.00000 40.00000 53.04000 -17.94000 8.520000 
94 "94" 40.00000 60.00000 60.00000 55.41000 -13.47000 -9.090000 
95 "95" 40.00000 60.00000 80.00000 57.50000 -5.410000 -27.81000 
96 "96" 40.00000 60.00000 100.0000 58.89000 3.320000 -45.78000 
97 "97" 40.00000 80.00000 0.00000 56.32000 -36.00000 60.78000 
98 "98" 40.00000 80.00000 20.00000 58.74000 -41.24000 37.53000 
99 "99" 40.00000 80.00000 40.00000 61.08000 -38.14000 16.85000 
100 "100" 40.00000 80.00000 60.00000 63.01000 -31.60000 -2.220000 
101 "101" 40.00000 80.00000 80.00000 65.69000 -24.72000 -20.22000 
102 "102" 40.00000 80.00000 100.0000 67.72000 -16.93000 -38.12000 
103 "103" 40.00000 100.0000 0.00000 65.11000 -50.27000 68.38000 
104 "104" 40.00000 100.0000 20.00000 64.46000 -61.73000 47.19000 
105 "105" 40.00000 100.0000 40.00000 66.46000 -59.57000 24.12000 
106 "106" 40.00000 100.0000 60.00000 69.04000 -52.14000 5.430000 
107 "107" 40.00000 100.0000 80.00000 72.33000 -42.53000 -13.77000 
108 "108" 40.00000 100.0000 100.0000 75.17000 -32.64000 -31.64000 
109 "109" 60.00000 0.00000 0.00000 33.14000 49.70000 35.52000 
110 "110" 60.00000 0.00000 20.00000 35.21000 53.92000 20.59000 
111 "111" 60.00000 0.00000 40.00000 35.42000 57.83000 6.850000 
112 "112" 60.00000 0.00000 60.00000 36.47000 61.45000 -5.870000 
113 "113" 60.00000 0.00000 80.00000 38.26000 64.60000 -19.23000 
114 "114" 60.00000 0.00000 100.0000 41.31000 69.85000 -31.69000 
115 "115" 60.00000 20.00000 0.00000 41.85000 30.94000 51.61000 
116 "116" 60.00000 20.00000 20.00000 42.18000 31.33000 28.89000 
117 "117" 60.00000 20.00000 40.00000 44.65000 34.86000 9.480000 
118 "118" 60.00000 20.00000 60.00000 46.03000 40.00000 -8.440000 
119 "119" 60.00000 20.00000 80.00000 48.40000 44.58000 -25.06000 
120 "120" 60.00000 20.00000 100.0000 48.58000 52.71000 -41.82000 
121 "121" 60.00000 40.00000 0.00000 49.10000 13.18000 59.63000 
122 "122" 60.00000 40.00000 20.00000 51.42000 10.30000 36.69000 
123 "123" 60.00000 40.00000 40.00000 52.47000 13.14000 15.01000 
124 "124" 60.00000 40.00000 60.00000 55.18000 17.38000 -3.620000 
125 "125" 60.00000 40.00000 80.00000 56.90000 23.26000 -22.31000 
126 "126" 60.00000 40.00000 100.0000 57.90000 31.23000 -40.44000 
127 "127" 60.00000 60.00000 0.00000 56.28000 -2.680000 67.44000 
128 "128" 60.00000 60.00000 20.00000 58.89000 -7.610000 44.22000 
129 "129" 60.00000 60.00000 40.00000 60.28000 -4.430000 23.02000 
130 "130" 60.00000 60.00000 60.00000 61.23000 -0.280000 2.480000 
131 "131" 60.00000 60.00000 80.00000 63.93000 5.170000 -16.87000 
132 "132" 60.00000 60.00000 100.0000 65.51000 11.52000 -35.19000 
133 "133" 60.00000 80.00000 0.00000 65.80000 -19.42000 75.54000 
134 "134" 60.00000 80.00000 20.00000 66.49000 -25.64000 51.42000 
135 "135" 60.00000 80.00000 40.00000 68.18000 -23.56000 30.11000 
136 "136" 60.00000 80.00000 60.00000 70.25000 -18.08000 9.850000 
137 "137" 60.00000 80.00000 80.00000 73.39000 -12.72000 -10.17000 
138 "138" 60.00000 80.00000 100.0000 72.71000 -7.900000 -30.08000 
139 "139" 60.00000 100.0000 0.00000 72.88000 -34.68000 81.92000 
140 "140" 60.00000 100.0000 20.00000 74.04000 -44.55000 59.34000 
141 "141" 60.00000 100.0000 40.00000 75.57000 -43.33000 36.14000 
142 "142" 60.00000 100.0000 60.00000 76.45000 -38.15000 15.23000 
143 "143" 60.00000 100.0000 80.00000 79.15000 -30.49000 -3.340000 
144 "144" 60.00000 100.0000 100.0000 81.16000 -21.80000 -21.97000 
145 "145" 80.00000 0.00000 0.00000 43.78000 63.73000 50.72000 
146 "146" 80.00000 0.00000 20.00000 44.35000 65.45000 34.14000 
147 "147" 80.00000 0.00000 40.00000 43.93000 67.93000 21.31000 
148 "148" 80.00000 0.00000 60.00000 43.62000 70.06000 6.570000 
149 "149" 80.00000 0.00000 80.00000 44.39000 72.93000 -6.560000 
150 "150" 80.00000 0.00000 100.0000 47.43000 74.94000 -19.19000 
151 "151" 80.00000 20.00000 0.00000 52.35000 44.53000 68.04000 
152 "152" 80.00000 20.00000 20.00000 51.97000 43.85000 44.66000 
153 "153" 80.00000 20.00000 40.00000 52.90000 45.41000 24.42000 
154 "154" 80.00000 20.00000 60.00000 53.81000 49.07000 5.060000 
155 "155" 80.00000 20.00000 80.00000 54.93000 55.44000 -13.30000 
156 "156" 80.00000 20.00000 100.0000 55.32000 59.11000 -30.96000 
157 "157" 80.00000 40.00000 0.00000 60.21000 27.75000 75.75000 
158 "158" 80.00000 40.00000 20.00000 60.24000 23.51000 50.78000 
159 "159" 80.00000 40.00000 40.00000 60.74000 25.24000 29.80000 
160 "160" 80.00000 40.00000 60.00000 62.51000 28.42000 9.230000 
161 "161" 80.00000 40.00000 80.00000 65.50000 32.23000 -9.100000 
162 "162" 80.00000 40.00000 100.0000 64.37000 40.06000 -28.74000 
163 "163" 80.00000 60.00000 0.00000 66.26000 9.300000 81.65000 
164 "164" 80.00000 60.00000 20.00000 67.76000 5.840000 57.97000 
165 "165" 80.00000 60.00000 40.00000 69.27000 7.660000 36.46000 
166 "166" 80.00000 60.00000 60.00000 70.79000 10.25000 15.04000 
167 "167" 80.00000 60.00000 80.00000 71.58000 15.08000 -5.140000 
168 "168" 80.00000 60.00000 100.0000 72.58000 21.15000 -24.42000 
169 "169" 80.00000 80.00000 0.00000 74.02000 -5.010000 90.08000 
170 "170" 80.00000 80.00000 20.00000 75.13000 -11.19000 65.40000 
171 "171" 80.00000 80.00000 40.00000 76.19000 -9.230000 43.07000 
172 "172" 80.00000 80.00000 60.00000 77.81000 -5.720000 21.36000 
173 "173" 80.00000 80.00000 80.00000 77.64000 -0.790000 0.360000 
174 "174" 80.00000 80.00000 100.0000 78.83000 3.820000 -20.48000 
175 "175" 80.00000 100.0000 0.00000 80.92000 -20.37000 95.59000 
176 "176" 80.00000 100.0000 20.00000 81.90000 -28.26000 70.90000 
177 "177" 80.00000 100.0000 40.00000 82.54000 -26.52000 49.10000 
178 "178" 80.00000 100.0000 60.00000 84.40000 -23.16000 27.79000 
179 "179" 80.00000 100.0000 80.00000 86.11000 -17.56000 7.030000 
180 "180" 80.00000 100.0000 100.0000 88.48000 -11.39000 -11.95000 
181 "181" 100.0000 0.00000 0.00000 51.22000 77.50000 69.23000 
182 "182" 100.0000 0.00000 20.00000 50.92000 76.71000 50.25000 
183 "183" 100.0000 0.00000 40.00000 49.68000 77.52000 35.88000 
184 "184" 100.0000 0.00000 60.00000 49.83000 78.35000 20.89000 
185 "185" 100.0000 0.00000 80.00000 49.68000 80.57000 6.930000 
186 "186" 100.0000 0.00000 100.0000 51.83000 80.93000 -8.110000 
187 "187" 100.0000 20.00000 0.00000 61.49000 57.61000 82.10000 
188 "188" 100.0000 20.00000 20.00000 61.26000 56.10000 57.04000 
189 "189" 100.0000 20.00000 40.00000 61.75000 56.97000 36.25000 
190 "190" 100.0000 20.00000 60.00000 61.62000 60.28000 17.38000 
191 "191" 100.0000 20.00000 80.00000 60.79000 64.59000 -1.400000 
192 "192" 100.0000 20.00000 100.0000 60.87000 68.49000 -19.49000 
193 "193" 100.0000 40.00000 0.00000 68.90000 39.92000 89.96000 
194 "194" 100.0000 40.00000 20.00000 70.47000 36.89000 65.17000 
195 "195" 100.0000 40.00000 40.00000 69.90000 38.65000 41.98000 
196 "196" 100.0000 40.00000 60.00000 69.82000 41.68000 21.90000 
197 "197" 100.0000 40.00000 80.00000 71.18000 43.22000 0.280000 
198 "198" 100.0000 40.00000 100.0000 70.44000 49.67000 -18.65000 
199 "199" 100.0000 60.00000 0.00000 76.33000 22.24000 96.54000 
200 "200" 100.0000 60.00000 20.00000 76.53000 20.28000 69.43000 
201 "201" 100.0000 60.00000 40.00000 77.20000 20.53000 47.83000 
202 "202" 100.0000 60.00000 60.00000 77.88000 22.78000 27.08000 
203 "203" 100.0000 60.00000 80.00000 78.07000 26.72000 5.740000 
204 "204" 100.0000 60.00000 100.0000 78.74000 31.49000 -14.95000 
205 "205" 100.0000 80.00000 0.00000 82.31000 8.890000 103.0100 
206 "206" 100.0000 80.00000 20.00000 84.01000 2.900000 78.65000 
207 "207" 100.0000 80.00000 40.00000 84.26000 5.170000 53.99000 
208 "208" 100.0000 80.00000 60.00000 85.15000 6.360000 33.51000 
209 "209" 100.0000 80.00000 80.00000 85.24000 10.82000 10.41000 
210 "210" 100.0000 80.00000 100.0000 85.46000 16.00000 -9.720000 
211 "211" 100.0000 100.0000 0.00000 89.10000 -6.230000 109.1200 
212 "212" 100.0000 100.0000 20.00000 91.89000 -11.10000 81.29000 
213 "213" 100.0000 100.0000 40.00000 92.07000 -10.54000 58.80000 
214 "214" 100.0000 100.0000 60.00000 92.98000 -8.620000 37.89000 
215 "215" 100.0000 100.0000 80.00000 93.66000 -6.100000 18.22000 
216 "216" 100.0000 100.0000 100.0000 94.90000 -1.150000 -1.880000 
217 "217" 10.19608 10.19608 10.19608 10.07000 6.030000 -1.420000 
218 "218" 10.19608 10.19608 30.19608 16.12000 15.29000 -19.74000 
219 "219" 10.19608 10.19608 50.19608 19.53000 25.10000 -37.60000 
220 "220" 10.19608 10.19608 70.19608 23.12000 35.33000 -55.01000 
221 "221" 10.19608 10.19608 90.19608 28.69000 45.82000 -69.74000 
222 "222" 10.19608 30.19608 10.19608 21.33000 -14.49000 7.120000 
223 "223" 10.19608 30.19608 30.19608 22.88000 -9.230000 -14.56000 
224 "224" 10.19608 30.19608 50.19608 26.18000 -0.200000 -35.58000 
225 "225" 10.19608 30.19608 70.19608 29.92000 8.130000 -53.72000 
226 "226" 10.19608 30.19608 90.19608 33.86000 20.23000 -70.96000 
227 "227" 10.19608 50.19608 10.19608 29.36000 -36.07000 14.90000 
228 "228" 10.19608 50.19608 30.19608 31.16000 -31.54000 -8.460000 
229 "229" 10.19608 50.19608 50.19608 33.90000 -24.94000 -28.60000 
230 "230" 10.19608 50.19608 70.19608 37.79000 -14.96000 -47.21000 
231 "231" 10.19608 50.19608 90.19608 41.51000 -4.540000 -64.19000 
232 "232" 10.19608 70.19608 10.19608 38.94000 -56.03000 22.72000 
233 "233" 10.19608 70.19608 30.19608 40.51000 -54.16000 -0.300000 
234 "234" 10.19608 70.19608 50.19608 43.15000 -46.67000 -21.27000 
235 "235" 10.19608 70.19608 70.19608 44.92000 -37.82000 -39.28000 
236 "236" 10.19608 70.19608 90.19608 48.46000 -27.60000 -56.68000 
237 "237" 10.19608 90.19608 10.19608 48.53000 -73.13000 32.08000 
238 "238" 10.19608 90.19608 30.19608 48.31000 -74.91000 7.410000 
239 "239" 10.19608 90.19608 50.19608 50.02000 -66.21000 -12.97000 
240 "240" 10.19608 90.19608 70.19608 53.22000 -54.85000 -29.62000 
241 "241" 10.19608 90.19608 90.19608 57.97000 -46.10000 -44.81000 
242 "242" 30.19608 10.19608 10.19608 22.03000 20.72000 12.53000 
243 "243" 30.19608 10.19608 30.19608 24.95000 26.58000 -5.480000 
244 "244" 30.19608 10.19608 50.19608 29.01000 34.35000 -21.94000 
245 "245" 30.19608 10.19608 70.19608 31.88000 41.65000 -38.08000 
246 "246" 30.19608 10.19608 90.19608 35.60000 49.65000 -53.65000 
247 "247" 30.19608 30.19608 10.19608 31.90000 0.170000 20.65000 
248 "248" 30.19608 30.19608 30.19608 32.46000 3.570000 -1.070000 
249 "249" 30.19608 30.19608 50.19608 37.62000 10.26000 -19.05000 
250 "250" 30.19608 30.19608 70.19608 42.97000 17.10000 -37.46000 
251 "251" 30.19608 30.19608 90.19608 44.42000 25.49000 -52.83000 
252 "252" 30.19608 50.19608 10.19608 39.34000 -18.57000 30.15000 
253 "253" 30.19608 50.19608 30.19608 42.99000 -15.62000 7.560000 
254 "254" 30.19608 50.19608 50.19608 46.35000 -11.76000 -12.18000 
255 "255" 30.19608 50.19608 70.19608 49.87000 -4.360000 -29.60000 
256 "256" 30.19608 50.19608 90.19608 52.09000 4.140000 -46.33000 
257 "257" 30.19608 70.19608 10.19608 49.12000 -38.57000 39.72000 
258 "258" 30.19608 70.19608 30.19608 52.35000 -37.96000 16.20000 
259 "259" 30.19608 70.19608 50.19608 53.72000 -32.85000 -3.760000 
260 "260" 30.19608 70.19608 70.19608 56.15000 -25.79000 -21.51000 
261 "261" 30.19608 70.19608 90.19608 59.38000 -16.36000 -39.06000 
262 "262" 30.19608 90.19608 10.19608 56.63000 -56.68000 48.22000 
263 "263" 30.19608 90.19608 30.19608 59.15000 -57.88000 23.24000 
264 "264" 30.19608 90.19608 50.19608 61.23000 -52.21000 5.060000 
265 "265" 30.19608 90.19608 70.19608 64.03000 -43.48000 -14.51000 
266 "266" 30.19608 90.19608 90.19608 67.31000 -35.06000 -29.95000 
267 "267" 50.19608 10.19608 10.19608 32.43000 34.38000 28.62000 
268 "268" 50.19608 10.19608 30.19608 34.99000 39.34000 8.730000 
269 "269" 50.19608 10.19608 50.19608 36.65000 42.51000 -7.550000 
270 "270" 50.19608 10.19608 70.19608 39.28000 49.24000 -23.65000 
271 "271" 50.19608 10.19608 90.19608 41.72000 55.19000 -38.88000 
272 "272" 50.19608 30.19608 10.19608 41.39000 13.64000 36.28000 
273 "273" 50.19608 30.19608 30.19608 43.76000 15.18000 14.36000 
274 "274" 50.19608 30.19608 50.19608 45.83000 20.38000 -4.450000 
275 "275" 50.19608 30.19608 70.19608 49.03000 26.20000 -22.33000 
276 "276" 50.19608 30.19608 90.19608 51.47000 32.42000 -39.94000 
277 "277" 50.19608 50.19608 10.19608 49.50000 -4.970000 44.60000 
278 "278" 50.19608 50.19608 30.19608 51.88000 -3.340000 22.26000 
279 "279" 50.19608 50.19608 50.19608 51.93000 0.630000 2.150000 
280 "280" 50.19608 50.19608 70.19608 56.46000 6.010000 -16.41000 
281 "281" 50.19608 50.19608 90.19608 59.18000 12.32000 -34.49000 
282 "282" 50.19608 70.19608 10.19608 58.33000 -23.49000 54.53000 
283 "283" 50.19608 70.19608 30.19608 59.24000 -22.97000 29.42000 
284 "284" 50.19608 70.19608 50.19608 61.10000 -18.40000 9.110000 
285 "285" 50.19608 70.19608 70.19608 63.42000 -13.59000 -9.020000 
286 "286" 50.19608 70.19608 90.19608 65.95000 -6.060000 -28.03000 
287 "287" 50.19608 90.19608 10.19608 65.15000 -41.19000 61.44000 
288 "288" 50.19608 90.19608 30.19608 67.54000 -42.46000 36.67000 
289 "289" 50.19608 90.19608 50.19608 70.47000 -37.74000 17.35000 
290 "290" 50.19608 90.19608 70.19608 71.09000 -31.31000 -2.740000 
291 "291" 50.19608 90.19608 90.19608 72.82000 -25.08000 -21.61000 
292 "292" 70.19608 10.19608 10.19608 43.10000 48.30000 43.82000 
293 "293" 70.19608 10.19608 30.19608 44.29000 50.56000 24.33000 
294 "294" 70.19608 10.19608 50.19608 45.03000 53.32000 6.350000 
295 "295" 70.19608 10.19608 70.19608 45.78000 57.93000 -9.850000 
296 "296" 70.19608 10.19608 90.19608 47.98000 63.11000 -25.76000 
297 "297" 70.19608 30.19608 10.19608 51.60000 27.49000 52.74000 
298 "298" 70.19608 30.19608 30.19608 52.05000 27.80000 29.37000 
299 "299" 70.19608 30.19608 50.19608 53.53000 30.56000 10.08000 
300 "300" 70.19608 30.19608 70.19608 55.65000 35.67000 -7.930000 
301 "301" 70.19608 30.19608 90.19608 57.57000 40.82000 -26.83000 
302 "302" 70.19608 50.19608 10.19608 59.29000 8.400000 60.22000 
303 "303" 70.19608 50.19608 30.19608 60.33000 8.420000 37.03000 
304 "304" 70.19608 50.19608 50.19608 61.67000 11.34000 15.80000 
305 "305" 70.19608 50.19608 70.19608 63.99000 16.49000 -3.390000 
306 "306" 70.19608 50.19608 90.19608 66.28000 21.78000 -22.48000 
307 "307" 70.19608 70.19608 10.19608 65.93000 -8.430000 67.60000 
308 "308" 70.19608 70.19608 30.19608 67.22000 -8.600000 44.03000 
309 "309" 70.19608 70.19608 50.19608 68.89000 -5.960000 22.78000 
310 "310" 70.19608 70.19608 70.19608 70.74000 -0.730000 2.200000 
311 "311" 70.19608 70.19608 90.19608 73.16000 3.800000 -17.26000 
312 "312" 70.19608 90.19608 10.19608 74.37000 -25.78000 74.29000 
313 "313" 70.19608 90.19608 30.19608 75.57000 -26.50000 49.97000 
314 "314" 70.19608 90.19608 50.19608 76.58000 -23.37000 28.45000 
315 "315" 70.19608 90.19608 70.19608 78.45000 -18.03000 8.240000 
316 "316" 70.19608 90.19608 90.19608 78.52000 -13.20000 -11.77000 
317 "317" 90.19608 10.19608 10.19608 52.65000 59.37000 59.19000 
318 "318" 90.19608 10.19608 30.19608 52.89000 60.79000 40.00000 
319 "319" 90.19608 10.19608 50.19608 53.83000 62.62000 21.40000 
320 "320" 90.19608 10.19608 70.19608 53.47000 66.46000 2.030000 
321 "321" 90.19608 10.19608 90.19608 54.13000 70.46000 -13.48000 
322 "322" 90.19608 30.19608 10.19608 61.49000 39.14000 66.21000 
323 "323" 90.19608 30.19608 30.19608 61.76000 39.38000 42.46000 
324 "324" 90.19608 30.19608 50.19608 62.32000 41.57000 23.25000 
325 "325" 90.19608 30.19608 70.19608 63.56000 44.27000 4.220000 
326 "326" 90.19608 30.19608 90.19608 64.21000 49.14000 -14.40000 
327 "327" 90.19608 50.19608 10.19608 68.40000 20.90000 73.58000 
328 "328" 90.19608 50.19608 30.19608 69.35000 21.01000 48.86000 
329 "329" 90.19608 50.19608 50.19608 70.38000 23.25000 28.22000 
330 "330" 90.19608 50.19608 70.19608 71.51000 26.54000 8.840000 
331 "331" 90.19608 50.19608 90.19608 71.81000 31.06000 -11.70000 
332 "332" 90.19608 70.19608 10.19608 75.56000 4.900000 80.52000 
333 "333" 90.19608 70.19608 30.19608 77.13000 5.180000 55.35000 
334 "334" 90.19608 70.19608 50.19608 77.44000 7.380000 34.31000 
335 "335" 90.19608 70.19608 70.19608 77.65000 10.04000 13.67000 
336 "336" 90.19608 70.19608 90.19608 78.51000 15.51000 -6.560000 
337 "337" 90.19608 90.19608 10.19608 82.46000 -10.14000 87.49000 
338 "338" 90.19608 90.19608 30.19608 83.43000 -10.26000 63.56000 
339 "339" 90.19608 90.19608 50.19608 84.19000 -8.860000 41.66000 
340 "340" 90.19608 90.19608 70.19608 84.98000 -5.640000 20.24000 
341 "341" 90.19608 90.19608 90.19608 86.99000 -0.540000 -0.180000 
342 "342" 10.19608 0.00000 0.00000 6.140000 11.35000 4.640000 
343 "343" 0.00000 10.19608 0.00000 8.300000 -9.930000 4.600000 
344 "344" 0.00000 0.00000 10.19608 5.320000 8.820000 -8.900000 
345 "345" 20.39216 5.098039 5.098039 13.83000 17.73000 9.270000 
346 "346" 5.098039 20.39216 5.098039 13.27000 -12.03000 6.190000 
347 "347" 5.098039 5.098039 20.39216 9.930000 13.31000 -14.81000 
348 "348" 30.19608 14.90196 14.90196 24.28000 16.72000 8.230000 
349 "349" 14.90196 30.19608 14.90196 23.22000 -9.520000 4.470000 
350 "350" 14.90196 14.90196 30.19608 19.72000 12.39000 -16.52000 
351 "351" 40.39216 25.09804 25.09804 35.32000 13.62000 9.400000 
352 "352" 25.09804 40.39216 25.09804 34.70000 -10.31000 4.710000 
353 "353" 25.09804 25.09804 40.39216 31.38000 10.40000 -15.46000 
354 "354" 50.19608 34.90196 34.90196 45.67000 10.97000 11.01000 
355 "355" 34.90196 50.19608 34.90196 45.98000 -11.50000 5.430000 
356 "356" 34.90196 34.90196 50.19608 41.12000 7.520000 -14.06000 
357 "357" 60.39216 45.09804 45.09804 54.64000 9.910000 11.69000 
358 "358" 45.09804 60.39216 45.09804 54.97000 -14.29000 6.180000 
359 "359" 45.09804 45.09804 60.39216 51.69000 4.760000 -12.60000 
360 "360" 70.19608 54.90196 54.90196 63.60000 8.340000 12.45000 
361 "361" 54.90196 70.19608 54.90196 63.14000 -14.30000 7.790000 
362 "362" 54.90196 54.90196 70.19608 59.44000 3.640000 -12.05000 
363 "363" 80.39216 65.09804 65.09804 72.80000 7.220000 11.74000 
